X:290
T: Dui hua
N: C0676
O: China,Henan
S: MM,]
N: Notenbeilage kopiert.
N: Diese Sammlung enthaelt mit Stand 1987 wenigstens 32 Aufnahmen
N: mit dem Titel "Dui hua"
N: Zweistimmig!!! Angegeben ist der Notentext der 3. Strophe in der Ober-
N: stimme. Die letzte Phrase wird in Strophe 1,2 eine Oktave tiefer,
N: die T.3,4 / Phr.7 und T.1,3 / Phr.10 von der Unterstimme gesungen,
N: Oberstimme pausiert). +++Korr. nach Shen Qia+++ Phrasen kontrollieren!+++
N: Einige Verzierungen. Vor- und Zwischenspiele weggelassen.
R: Xiaodiao. Chang huahui]
M: 2/4
L: 1/16
K: E
c2f2d2c2 | c2G2B2e2 | e2G2G2F2 | E4E2C2 |
f2d2c2B2 | c2G2B4 | e3GG2F2 | E4E2C2 |
B3GF2G2 | B4B2B2 | c3BF2G2 | B4B4 |
G4e2G2 | G4e2G2 | F2B2B2B2 | c2G2c2G2 |
e3ee2e2 | c2B2c4- | c4e4 | e2G2G2F2 | G2B2F4- | F4
B4- | B4e4 | G3FG2B2 | E4E4 |
e3ee2c2 | B4B4 | F2G2F2G2 | B4B4 |
e3ee2c2 | B4B4 | e2G2G2F2 | E4E4 |
c2B2c4- | c4e4 | e2G2G2F2 | E3FE2F2 | E3FE2F2 | B8- | B8 |
B2B4e2 | g2f2e2f2 | e8

@@@ Tune index: 6291
